src/assets/svg/icons/fa/nuevos/classic/duotone/hand-pointer classic duotone.svg

<svg xmlns="http://www.w3.org/2000/svg" viewBox="0 0 448 512"><defs><style>.fa-secondary{opacity:.4}</style></defs><path class="fa-primary" d="M224 288C215.2 288 208 295.2 208 304v96c0 8.844 7.156 16 16 16s16-7.156 16-16v-96C240 295.2 232.8 288 224 288zM288 288c-8.844 0-16 7.156-16 16v96c0 8.844 7.156 16 16 16s16-7.156 16-16v-96C304 295.2 296.8 288 288 288zM352 288c-8.844 0-16 7.156-16 16v96c0 8.844 7.156 16 16 16s16-7.156 16-16v-96C368 295.2 360.8 288 352 288z"/><path class="fa-secondary" d="M400 224c-9.148 0-17.62 2.697-24.89 7.143C370.9 208.9 351.5 192 328 192c-17.38 0-32.46 9.33-40.89 23.17C282.1 192.9 263.5 176 240 176c-12.35 0-23.49 4.797-32 12.46V40c0-22.09-17.9-40-39.1-40C145.9 0 128 17.91 128 40v322.7L72 288C64.15 277.5 52.13 272 39.97 272c-21.22 0-39.97 17.06-39.97 40.02c0 8.356 2.608 16.78 8.005 23.98l91.22 121.6C124.8 491.7 165.5 512 208 512h96C383.4 512 448 447.4 448 368v-96C448 245.5 426.5 224 400 224zM240 400c0 8.844-7.156 16-16 16s-16-7.156-16-16v-96C208 295.2 215.2 288 224 288s16 7.156 16 16V400zM304 400c0 8.844-7.156 16-16 16s-16-7.156-16-16v-96C272 295.2 279.2 288 288 288s16 7.156 16 16V400zM368 400c0 8.844-7.156 16-16 16s-16-7.156-16-16v-96C336 295.2 343.2 288 352 288s16 7.156 16 16V400z"/></svg>

<svg xmlns="http://www.w3.org/2000/svg" viewBox="0 0 448 512"><!--! Font Awesome Pro 6.4.0 by @fontawesome - https://fontawesome.com License - https://fontawesome.com/license (Commercial License) Copyright 2023 Fonticons, Inc. --><defs><style>.fa-secondary{opacity:.4}</style></defs><path class="fa-primary" d="M224 288c8.8 0 16 7.2 16 16v96c0 8.8-7.2 16-16 16s-16-7.2-16-16V304c0-8.8 7.2-16 16-16zm64 0c8.8 0 16 7.2 16 16v96c0 8.8-7.2 16-16 16s-16-7.2-16-16V304c0-8.8 7.2-16 16-16zm80 16v96c0 8.8-7.2 16-16 16s-16-7.2-16-16V304c0-8.8 7.2-16 16-16s16 7.2 16 16z"/><path class="fa-secondary" d="M128 40c0-22.1 17.9-40 40-40s40 17.9 40 40V188.2c8.5-7.6 19.7-12.2 32-12.2c20.6 0 38.2 13 45 31.2c8.8-9.3 21.2-15.2 35-15.2c25.3 0 46 19.5 47.9 44.3c8.5-7.7 19.8-12.3 32.1-12.3c26.5 0 48 21.5 48 48v48 16 48c0 70.7-57.3 128-128 128l-16 0H240l-.1 0h-5.2c-5 0-9.9-.3-14.7-1c-55.3-5.6-106.2-34-140-79L8 336c-13.3-17.7-9.7-42.7 8-56s42.7-9.7 56 8l56 74.7V40zM240 304c0-8.8-7.2-16-16-16s-16 7.2-16 16v96c0 8.8 7.2 16 16 16s16-7.2 16-16V304zm48-16c-8.8 0-16 7.2-16 16v96c0 8.8 7.2 16 16 16s16-7.2 16-16V304c0-8.8-7.2-16-16-16zm80 16c0-8.8-7.2-16-16-16s-16 7.2-16 16v96c0 8.8 7.2 16 16 16s16-7.2 16-16V304z"/></svg>
